Charging/Type2/Type2_mennekes_cable_attached.svg

<?xml version="1.0" encoding="UTF-8" standalone="no"?>
<!-- Created with Inkscape (http://www.inkscape.org/) -->

<svg
   version="1.1"
   id="svg2"
   width="72"
   height="72"
   viewBox="0 0 72 72"
   sodipodi:docname="Type2_mennekes_cable_attached.svg"
   inkscape:version="1.2.1 (9c6d41e410, 2022-07-14)"
   xml:space="preserve"
   xmlns:inkscape="http://www.inkscape.org/namespaces/inkscape"
   xmlns:sodipodi="http://sodipodi.sourceforge.net/DTD/sodipodi-0.dtd"
   xmlns="http://www.w3.org/2000/svg"
   xmlns:svg="http://www.w3.org/2000/svg"><defs
     id="defs6" /><sodipodi:namedview
     id="namedview4"
     pagecolor="#ffffff"
     bordercolor="#000000"
     borderopacity="0.25"
     inkscape:showpageshadow="2"
     inkscape:pageopacity="0.0"
     inkscape:pagecheckerboard="0"
     inkscape:deskcolor="#d1d1d1"
     showgrid="false"
     inkscape:zoom="6.5555556"
     inkscape:cx="50.720339"
     inkscape:cy="43.550847"
     inkscape:window-width="1368"
     inkscape:window-height="860"
     inkscape:window-x="-6"
     inkscape:window-y="-6"
     inkscape:window-maximized="1"
     inkscape:current-layer="g8" /><g
     inkscape:groupmode="layer"
     inkscape:label="Image"
     id="g8"><path
       style="fill:#000000"
       d="M 33.715696,70.872159 C 21.351084,68.089081 18.357168,58.14867 20.290173,26.296696 21.170001,11.79892 21.097865,9.8253315 19.604845,7.5466959 17.430148,4.2276886 13.213111,4.0499865 12.563972,7.25 c -0.251033,1.2375 -0.68137,7.034375 -0.956305,12.881944 -0.276835,5.887987 -1.150043,12.188 -1.9569945,14.119307 C 8.0733876,38.026226 4.5963406,41 1.7597856,41 -0.65674139,41 -0.55410039,37.373533 1.8804466,36.736884 5.9209446,35.68027 7.2349166,31.60168 7.9086516,18.025243 8.4347996,7.4228193 8.8802296,4.7702588 10.420248,3.0685583 13.646344,-0.49623838 20.554172,0.96638802 23.122427,5.7580498 24.531675,8.3873197 24.585533,10.538276 23.929747,38 c -0.505391,21.163731 1.351736,26.504641 10.087267,29.009958 6.561414,1.881789 15.459199,-2.526799 14.776771,-7.321451 -0.277368,-1.948753 0.01808,-2.674738 -1.216543,-2.904234 C 48.273883,54.786604 52.250608,54.950589 53.237908,57 l -0.608913,3.807935 c -1.191747,7.45278 -9.90835,12.091095 -18.913299,10.064224 z"
       id="path174"
       sodipodi:nodetypes="ssssssssssssssccss" /><path
       id="path359"
       style="color:#000000;display:inline;fill:#000000;fill-rule:evenodd;stroke-linejoin:round;-inkscape-stroke:none"
       d="m 23.389299,4.8243406 c -0.710209,-1.356e-4 -1.408943,0.169954 -2.039854,0.4960651 0,0 -3.091229,1.5225494 -5.696196,3.6777241 -2.221112,1.8375862 -5.337686,4.6641772 -7.5265051,7.9755292 -1.7238433,2.607931 -3.9241016,5.83719 -5.354082,9.639059 -1.5250158,4.054551 -2.56653933,8.439848 -2.73263458,12.957562 -0.20641181,5.614672 0.38884683,11.49144 2.35203288,17.0501 2.3923391,6.77376 6.2409571,13.071525 11.0716598,18.333027 3.709567,4.04037 8.241553,7.036969 12.812165,9.361091 3.789305,1.926835 6.191313,2.414109 8.946277,3.382651 9.13365,3.211061 19.222524,1.612212 19.222523,1.612212 0.157055,-0.02095 0.31221,-0.04793 0.466131,-0.08553 0,0 6.76497,-1.510686 10.95192,-3.429691 3.530654,-1.618218 6.537401,-3.663532 9.271286,-5.781725 2.873942,-2.226711 5.536953,-4.846161 7.629139,-7.239985 1.959502,-2.242005 3.422188,-4.080648 5.084667,-7.060375 1.617529,-2.899151 3.556989,-6.772595 4.644196,-11.281204 1.089334,-4.517429 1.448129,-9.916417 1.163187,-14.287531 -0.284044,-4.357365 -1.312797,-7.873456 -2.313545,-10.904879 -1.077572,-3.264107 -2.382778,-5.857239 -3.835952,-8.471595 -1.518702,-2.73227 -3.610553,-6.039892 -6.102456,-8.78805 C 78.39028,8.6559662 73.500428,5.585544 73.500428,5.585544 72.765611,5.0889935 71.898409,4.8242216 71.011549,4.8243406 Z m 9.450896,5.3925694 c 5.638033,0 10.173611,4.754982 10.173611,10.404539 0,5.649557 -4.535578,10.395985 -10.173611,10.395985 -5.638032,0 -10.177888,-4.746428 -10.177888,-10.395985 0,-5.649557 4.539856,-10.404539 10.177888,-10.404539 z m 29.011256,0 c 5.638033,0 10.177887,4.754982 10.177887,10.404539 0,5.649557 -4.539854,10.395985 -10.177887,10.395985 -5.638032,0 -10.177888,-4.746428 -10.177888,-10.395985 0,-5.649557 4.539856,-10.404539 10.177888,-10.404539 z m -29.011256,6.512993 c -2.005224,0 -3.664895,1.651333 -3.664895,3.891546 0,2.240212 1.659671,3.882992 3.664895,3.882992 2.005226,0 3.664894,-1.64278 3.664894,-3.882992 0,-2.240213 -1.659668,-3.891546 -3.664894,-3.891546 z m 29.011256,0 c -2.005225,0 -3.664895,1.651333 -3.664895,3.891546 0,2.240212 1.65967,3.882992 3.664895,3.882992 2.005226,0 3.664894,-1.64278 3.664894,-3.882992 0,-2.240213 -1.659668,-3.891546 -3.664894,-3.891546 z M 17.440794,28.417368 c 6.952966,0 12.735189,5.599241 12.735189,12.512815 0,6.913574 -5.782223,12.508538 -12.735189,12.508538 -6.952966,0 -12.7351888,-5.594964 -12.7351888,-12.508538 0,-6.913574 5.7822228,-12.512815 12.7351888,-12.512815 z m 29.460281,0 c 6.952967,0 12.730912,5.599241 12.730912,12.512815 0,6.913574 -5.777945,12.508538 -12.730912,12.508538 -6.952964,0 -12.735189,-5.594964 -12.735189,-12.508538 0,-6.913574 5.782225,-12.512815 12.735189,-12.512815 z m 29.011256,0 c 6.952966,0 12.730912,5.599241 12.730912,12.512815 0,6.913574 -5.777946,12.508538 -12.730912,12.508538 -6.952967,0 -12.735189,-5.594964 -12.735189,-12.508538 0,-6.913574 5.782222,-12.512815 12.735189,-12.512815 z m -58.471537,6.512993 c -3.516525,0 -6.222196,2.690412 -6.222196,5.999822 0,3.30941 2.705671,5.995546 6.222196,5.995546 3.516526,0 6.222196,-2.686136 6.222196,-5.995546 0,-3.30941 -2.70567,-5.999822 -6.222196,-5.999822 z m 29.460281,0 c -3.516525,0 -6.226473,2.690412 -6.226473,5.999822 0,3.30941 2.709948,5.995546 6.226473,5.995546 3.516526,0 6.217919,-2.686136 6.217919,-5.995546 0,-3.30941 -2.701393,-5.999822 -6.217919,-5.999822 z m 29.011256,0 c -3.516527,0 -6.222196,2.690412 -6.222196,5.999822 0,3.30941 2.705669,5.995546 6.222196,5.995546 3.516525,0 6.222196,-2.686136 6.222196,-5.995546 0,-3.30941 -2.705671,-5.999822 -6.222196,-5.999822 z M 31.724048,53.408786 c 6.952966,0 12.735189,5.599242 12.735189,12.512815 0,6.913575 -5.782223,12.512815 -12.735189,12.512815 -6.952965,0 -12.735189,-5.59924 -12.735189,-12.512815 0,-6.913573 5.782224,-12.512815 12.735189,-12.512815 z m 30.349777,0 c 6.952965,0 12.735188,5.599242 12.735188,12.512815 0,6.913575 -5.782223,12.512815 -12.735188,12.512815 -6.952966,0 -12.735189,-5.59924 -12.735189,-12.512815 0,-6.913573 5.782223,-12.512815 12.735189,-12.512815 z m -30.349777,6.512993 c -3.516524,0 -6.222196,2.690413 -6.222196,5.999822 0,3.309411 2.705672,5.999822 6.222196,5.999822 3.516527,0 6.222196,-2.690411 6.222196,-5.999822 0,-3.309409 -2.705669,-5.999822 -6.222196,-5.999822 z m 30.349777,0 c -3.516526,0 -6.222196,2.690413 -6.222196,5.999822 0,3.309411 2.70567,5.999822 6.222196,5.999822 3.516525,0 6.222196,-2.690411 6.222196,-5.999822 0,-3.309409 -2.705671,-5.999822 -6.222196,-5.999822 z"
       transform="matrix(0.45671928,0,0,0.45671928,29.095,16.380615)" /></g></svg>

<?xml version="1.0" encoding="UTF-8" standalone="no"?>
<!-- Created with Inkscape (http://www.inkscape.org/) -->

<svg
   version="1.1"
   id="svg2"
   width="72"
   height="72"
   viewBox="0 0 72 72"
   sodipodi:docname="Type2_mennekes_cable_attached.svg"
   inkscape:version="1.2.1 (9c6d41e410, 2022-07-14)"
   xml:space="preserve"
   xmlns:inkscape="http://www.inkscape.org/namespaces/inkscape"
   xmlns:sodipodi="http://sodipodi.sourceforge.net/DTD/sodipodi-0.dtd"
   xmlns="http://www.w3.org/2000/svg"
   xmlns:svg="http://www.w3.org/2000/svg"><defs
     id="defs6" /><sodipodi:namedview
     id="namedview4"
     pagecolor="#ffffff"
     bordercolor="#000000"
     borderopacity="0.25"
     inkscape:showpageshadow="2"
     inkscape:pageopacity="0.0"
     inkscape:pagecheckerboard="0"
     inkscape:deskcolor="#d1d1d1"
     showgrid="false"
     inkscape:zoom="6.5555556"
     inkscape:cx="52.855932"
     inkscape:cy="43.550847"
     inkscape:window-width="1368"
     inkscape:window-height="860"
     inkscape:window-x="-6"
     inkscape:window-y="-6"
     inkscape:window-maximized="1"
     inkscape:current-layer="g8" /><g
     inkscape:groupmode="layer"
     inkscape:label="Image"
     id="g8"><path
       style="fill:#000000"
       d="M 33.715696,70.872159 C 21.351084,68.089081 18.357168,58.14867 20.290173,26.296696 21.170001,11.79892 21.097865,9.8253315 19.604845,7.5466959 17.430148,4.2276886 13.213111,4.0499865 12.563972,7.25 c -0.251033,1.2375 -0.68137,7.034375 -0.956305,12.881944 -0.276835,5.887987 -1.150043,12.188 -1.9569945,14.119307 C 8.0733876,38.026226 4.5963406,41 1.7597856,41 -0.65674139,41 -0.55410039,37.373533 1.8804466,36.736884 5.9209446,35.68027 7.2349166,31.60168 7.9086516,18.025243 8.4347996,7.4228193 8.8802296,4.7702588 10.420248,3.0685583 13.646344,-0.49623838 20.554172,0.96638802 23.122427,5.7580498 24.531675,8.3873197 24.585533,10.538276 23.929747,38 c -0.505391,21.163731 1.351736,26.504641 10.087267,29.009958 6.561414,1.881789 15.459199,-2.526799 14.776771,-7.321451 -0.277368,-1.948753 0.01808,-2.674738 -1.216543,-2.904234 C 48.273883,54.786604 52.250608,54.950589 53.237908,57 l -0.608913,3.807935 c -1.191747,7.45278 -9.90835,12.091095 -18.913299,10.064224 z"
       id="path174"
       sodipodi:nodetypes="ssssssssssssssccss" /><g
       id="layer1"
       transform="matrix(0.45671928,0,0,0.45671928,29.095,16.380615)"><path
         id="path359"
         style="color:#000000;fill:#1a1a1a;fill-rule:evenodd;stroke-linejoin:round;-inkscape-stroke:none"
         d="M 23.389299 4.8243406 C 22.67909 4.824205 21.980356 4.9942946 21.349445 5.3204057 C 21.349445 5.3204057 18.258216 6.8429551 15.653249 8.9981298 C 13.432137 10.835716 10.315563 13.662307 8.1267439 16.973659 C 6.4029006 19.58159 4.2026423 22.810849 2.7726619 26.612718 C 1.2476461 30.667269 0.20612257 35.052566 0.040027323 39.57028 C -0.16638449 45.184952 0.42887415 51.06172 2.3920602 56.62038 C 4.7843993 63.39414 8.6330173 69.691905 13.46372 74.953407 C 17.173287 78.993777 21.705273 81.990376 26.275885 84.314498 C 30.06519 86.241333 32.467198 86.728607 35.222162 87.697149 C 44.355812 90.90821 54.444686 89.309361 54.444685 89.309361 C 54.60174 89.288411 54.756895 89.261432 54.910816 89.223832 C 54.910816 89.223832 61.675786 87.713146 65.862736 85.794141 C 69.39339 84.175923 72.400137 82.130609 75.134022 80.012416 C 78.007964 77.785705 80.670975 75.166255 82.763161 72.772431 C 84.722663 70.530426 86.185349 68.691783 87.847828 65.712056 C 89.465357 62.812905 91.404817 58.939461 92.492024 54.430852 C 93.581358 49.913423 93.940153 44.514435 93.655211 40.143321 C 93.371167 35.785956 92.342414 32.269865 91.341666 29.238442 C 90.264094 25.974335 88.958888 23.381203 87.505714 20.766847 C 85.987012 18.034577 83.895161 14.726955 81.403258 11.978797 C 78.39028 8.6559662 73.500428 5.585544 73.500428 5.585544 C 72.765611 5.0889935 71.898409 4.8242216 71.011549 4.8243406 L 23.389299 4.8243406 z M 32.840195 10.21691 C 38.478228 10.21691 43.013806 14.971892 43.013806 20.621449 C 43.013806 26.271006 38.478228 31.017434 32.840195 31.017434 C 27.202163 31.017434 22.662307 26.271006 22.662307 20.621449 C 22.662307 14.971892 27.202163 10.21691 32.840195 10.21691 z M 61.851451 10.21691 C 67.489484 10.21691 72.029338 14.971892 72.029338 20.621449 C 72.029338 26.271006 67.489484 31.017434 61.851451 31.017434 C 56.213419 31.017434 51.673563 26.271006 51.673563 20.621449 C 51.673563 14.971892 56.213419 10.21691 61.851451 10.21691 z M 32.840195 16.729903 C 30.834971 16.729903 29.1753 18.381236 29.1753 20.621449 C 29.1753 22.861661 30.834971 24.504441 32.840195 24.504441 C 34.845421 24.504441 36.505089 22.861661 36.505089 20.621449 C 36.505089 18.381236 34.845421 16.729903 32.840195 16.729903 z M 61.851451 16.729903 C 59.846226 16.729903 58.186556 18.381236 58.186556 20.621449 C 58.186556 22.861661 59.846226 24.504441 61.851451 24.504441 C 63.856677 24.504441 65.516345 22.861661 65.516345 20.621449 C 65.516345 18.381236 63.856677 16.729903 61.851451 16.729903 z M 17.440794 28.417368 C 24.39376 28.417368 30.175983 34.016609 30.175983 40.930183 C 30.175983 47.843757 24.39376 53.438721 17.440794 53.438721 C 10.487828 53.438721 4.7056052 47.843757 4.7056052 40.930183 C 4.7056052 34.016609 10.487828 28.417368 17.440794 28.417368 z M 46.901075 28.417368 C 53.854042 28.417368 59.631987 34.016609 59.631987 40.930183 C 59.631987 47.843757 53.854042 53.438721 46.901075 53.438721 C 39.948111 53.438721 34.165886 47.843757 34.165886 40.930183 C 34.165886 34.016609 39.948111 28.417368 46.901075 28.417368 z M 75.912331 28.417368 C 82.865297 28.417368 88.643243 34.016609 88.643243 40.930183 C 88.643243 47.843757 82.865297 53.438721 75.912331 53.438721 C 68.959364 53.438721 63.177142 47.843757 63.177142 40.930183 C 63.177142 34.016609 68.959364 28.417368 75.912331 28.417368 z M 17.440794 34.930361 C 13.924269 34.930361 11.218598 37.620773 11.218598 40.930183 C 11.218598 44.239593 13.924269 46.925729 17.440794 46.925729 C 20.95732 46.925729 23.66299 44.239593 23.66299 40.930183 C 23.66299 37.620773 20.95732 34.930361 17.440794 34.930361 z M 46.901075 34.930361 C 43.38455 34.930361 40.674602 37.620773 40.674602 40.930183 C 40.674602 44.239593 43.38455 46.925729 46.901075 46.925729 C 50.417601 46.925729 53.118994 44.239593 53.118994 40.930183 C 53.118994 37.620773 50.417601 34.930361 46.901075 34.930361 z M 75.912331 34.930361 C 72.395804 34.930361 69.690135 37.620773 69.690135 40.930183 C 69.690135 44.239593 72.395804 46.925729 75.912331 46.925729 C 79.428856 46.925729 82.134527 44.239593 82.134527 40.930183 C 82.134527 37.620773 79.428856 34.930361 75.912331 34.930361 z M 31.724048 53.408786 C 38.677014 53.408786 44.459237 59.008028 44.459237 65.921601 C 44.459237 72.835176 38.677014 78.434416 31.724048 78.434416 C 24.771083 78.434416 18.988859 72.835176 18.988859 65.921601 C 18.988859 59.008028 24.771083 53.408786 31.724048 53.408786 z M 62.073825 53.408786 C 69.02679 53.408786 74.809013 59.008028 74.809013 65.921601 C 74.809013 72.835176 69.02679 78.434416 62.073825 78.434416 C 55.120859 78.434416 49.338636 72.835176 49.338636 65.921601 C 49.338636 59.008028 55.120859 53.408786 62.073825 53.408786 z M 31.724048 59.921779 C 28.207524 59.921779 25.501852 62.612192 25.501852 65.921601 C 25.501852 69.231012 28.207524 71.921423 31.724048 71.921423 C 35.240575 71.921423 37.946244 69.231012 37.946244 65.921601 C 37.946244 62.612192 35.240575 59.921779 31.724048 59.921779 z M 62.073825 59.921779 C 58.557299 59.921779 55.851629 62.612192 55.851629 65.921601 C 55.851629 69.231012 58.557299 71.921423 62.073825 71.921423 C 65.59035 71.921423 68.296021 69.231012 68.296021 65.921601 C 68.296021 62.612192 65.59035 59.921779 62.073825 59.921779 z " /></g></g></svg>
